X: 7037
T: Chimer, The
R: jig
M: 6/8
K: Gmajor
|:BAF E3|EDB, DFA|BAF EFA|d2e dBA|
BAF E3|EDB, DEF|G3 FAd|FED E3:|
|:BAB ede|bag fed|BAB eab|gfe afd|
BAB ede|bag fed|c3 BAB|dAB GFE:|

